newicons/mybus.svg

<?xml version="1.0" encoding="UTF-8" standalone="no"?>
<!-- Created with Inkscape (http://www.inkscape.org/) -->

<svg
   width="48"
   height="48"
   viewBox="0 0 48 48"
   version="1.1"
   id="svg1"
   xml:space="preserve"
   inkscape:version="1.4.2 (ebf0e940d0, 2025-05-08)"
   sodipodi:docname="mybus.svg"
   xmlns:inkscape="http://www.inkscape.org/namespaces/inkscape"
   xmlns:sodipodi="http://sodipodi.sourceforge.net/DTD/sodipodi-0.dtd"
   xmlns="http://www.w3.org/2000/svg"
   xmlns:svg="http://www.w3.org/2000/svg"><sodipodi:namedview
     id="namedview1"
     pagecolor="#ffffff"
     bordercolor="#000000"
     borderopacity="0.25"
     inkscape:showpageshadow="2"
     inkscape:pageopacity="0.0"
     inkscape:pagecheckerboard="0"
     inkscape:deskcolor="#d1d1d1"
     inkscape:document-units="mm"
     showgrid="true"
     inkscape:zoom="16"
     inkscape:cx="26.59375"
     inkscape:cy="25.53125"
     inkscape:window-width="1920"
     inkscape:window-height="972"
     inkscape:window-x="0"
     inkscape:window-y="0"
     inkscape:window-maximized="1"
     inkscape:current-layer="layer1"><inkscape:grid
       id="grid6"
       units="mm"
       originx="0"
       originy="0"
       spacingx="3.7795276"
       spacingy="3.7795276"
       empcolor="#0099e5"
       empopacity="0.30196078"
       color="#0099e5"
       opacity="0.14901961"
       empspacing="5"
       enabled="true"
       visible="true" /></sodipodi:namedview><defs
     id="defs1" /><g
     inkscape:label="Layer 1"
     inkscape:groupmode="layer"
     id="layer1"><g
       id="g6"
       transform="matrix(1.8888889,0,0,1.8888889,-24.192526,-2.7986108)"><path
         id="rect3"
         style="display:inline;fill:#000000;fill-opacity:0;stroke:#ffffff;stroke-width:0.52941176;stroke-linecap:round;stroke-linejoin:round;stroke-dasharray:none;stroke-opacity:1"
         d="m 25.494141,5.96875 a 6.2628908,3.0974956 0 0 0 -6.259766,2.984375 h -0.0039 l -0.472657,11.345703 h 1.308594 c -0.0027,0.02754 -0.0039,0.05376 -0.0039,0.08203 v 1.175782 c 0,0.471095 0.378514,0.849609 0.849609,0.849609 h 0.378907 c 0.471095,0 0.849609,-0.378514 0.849609,-0.849609 v -1.175782 c 0,-0.02827 -0.0012,-0.05449 -0.0039,-0.08203 h 6.757812 c -0.0027,0.02746 -0.0039,0.05385 -0.0039,0.08203 v 1.173829 c 0,0.471095 0.378514,0.851562 0.849609,0.851562 h 0.378907 c 0.471095,0 0.849609,-0.380467 0.849609,-0.851562 v -1.173829 c 0,-0.02818 -0.0013,-0.05457 -0.0039,-0.08203 h 1.304687 L 31.753906,8.8964844 h -0.0059 A 6.2628908,3.0974956 0 0 0 25.494141,5.96875 Z" /><circle
         style="fill:#ffffff;stroke:#ffffff;stroke-width:0;stroke-linecap:round;stroke-linejoin:round"
         id="path4"
         cx="21.109652"
         cy="17.266088"
         r="1.0004631" /><circle
         style="fill:#ffffff;stroke:#ffffff;stroke-width:0;stroke-linecap:round;stroke-linejoin:round"
         id="path4-0"
         cx="29.916977"
         cy="17.266464"
         r="1.0004631" /><path
         style="fill:#000000;stroke:#ffffff;stroke-width:0.52941176;stroke-linecap:round;stroke-linejoin:round;stroke-dasharray:none;stroke-opacity:1"
         d="M 22.65625,7.71875 H 28.3125"
         id="path5" /><path
         style="fill:#000000;fill-opacity:0;stroke:#ffffff;stroke-width:0.52941176;stroke-linecap:round;stroke-linejoin:round;stroke-dasharray:none;stroke-opacity:1"
         d="M 20.207786,13.921165 H 30.714951 L 30.096232,8.9493202 h -9.192388 z"
         id="path6" /></g></g></svg>

<svg xmlns="http://www.w3.org/2000/svg" xml:space="preserve" width="48" height="48"><g transform="matrix(1.88889 0 0 1.88889 -24.193 -2.799)"><path fill="none" d="M25.494 5.969a6.263 3.097 0 0 0-6.26 2.984h-.004L18.758 20.3h1.308a.823.823 0 0 0-.003.082v1.176c0 .47.378.85.85.85h.378c.471 0 .85-.38.85-.85V20.38a.823.823 0 0 0-.004-.082h6.758a.824.824 0 0 0-.004.082v1.174c0 .47.378.851.85.851h.378c.471 0 .85-.38.85-.851V20.38a.855.855 0 0 0-.004-.082h1.305l-.516-11.403h-.006a6.263 3.097 0 0 0-6.254-2.927Z" style="display:inline;fill:#000;fill-opacity:0;stroke:#fff;stroke-width:.52941176;stroke-linecap:round;stroke-linejoin:round;stroke-dasharray:none;stroke-opacity:1"/><circle cx="21.11" cy="17.266" r="1" style="fill:#fff;stroke:#fff;stroke-width:0;stroke-linecap:round;stroke-linejoin:round"/><circle cx="29.917" cy="17.266" r="1" style="fill:#fff;stroke:#fff;stroke-width:0;stroke-linecap:round;stroke-linejoin:round"/><path d="M22.656 7.719h5.657" style="fill:#000;stroke:#fff;stroke-width:.52941176;stroke-linecap:round;stroke-linejoin:round;stroke-dasharray:none;stroke-opacity:1"/><path fill="none" d="M20.208 13.921h10.507l-.619-4.972h-9.192z" style="fill:#000;fill-opacity:0;stroke:#fff;stroke-width:.52941176;stroke-linecap:round;stroke-linejoin:round;stroke-dasharray:none;stroke-opacity:1"/></g></svg>
